%
(Header)
(Generated by gcodetools from Inkscape.)
(Using default header. To add your own header create file "header" in the output dir.)
M3
(Header end.)
G21 (All units in mm)

(Start cutting path id: path10)
(Change tool to Default tool)

G00 Z15.000000
G00 X21.146313 Y177.312740

G01 Z-0.125000 F100.0(Penetrate)
G01 X23.979180 Y163.791990 Z-0.125000 F6.000000
G01 X29.977683 Y152.871330 Z-0.125000
G01 X42.959260 Y147.982960 Z-0.125000
G01 X60.781466 Y147.542370 Z-0.125000
G01 X60.953168 Y155.941600 Z-0.125000
G01 X52.482599 Y155.812950 Z-0.125000
G01 X52.867930 Y188.658690 Z-0.125000
G01 X41.113180 Y189.088160 Z-0.125000
G01 X40.543958 Y180.246960 Z-0.125000
G01 X31.189221 Y179.993060 Z-0.125000
G01 X31.523302 Y189.926340 Z-0.125000
G01 X21.080342 Y189.593070 Z-0.125000
G01 X21.146313 Y177.312740 Z-0.125000
G00 Z15.000000

(End cutting path id: path10)


(Start cutting path id: path10)
(Change tool to Default tool)

G00 Z15.000000
G00 X21.146313 Y177.312740

G01 Z-0.125000 F100.0(Penetrate)
G01 X23.979180 Y163.791990 Z-0.125000 F6.000000
G01 X29.977683 Y152.871330 Z-0.125000
G01 X42.959260 Y147.982960 Z-0.125000
G01 X60.781466 Y147.542370 Z-0.125000
G01 X60.953168 Y155.941600 Z-0.125000
G01 X52.482599 Y155.812950 Z-0.125000
G01 X52.867930 Y188.658690 Z-0.125000
G01 X41.113180 Y189.088160 Z-0.125000
G01 X40.543958 Y180.246960 Z-0.125000
G01 X31.189221 Y179.993060 Z-0.125000
G01 X31.523302 Y189.926340 Z-0.125000
G01 X21.080342 Y189.593070 Z-0.125000
G01 X21.146313 Y177.312740 Z-0.125000
G00 Z15.000000

(End cutting path id: path10)


(Footer)
M5
G00 X0.0000 Y0.0000
M2
(Using default footer. To add your own footer create file "footer" in the output dir.)
(end)
%